src/components/Home/Core/assets/core-tv.svg

<svg width="75" height="79" viewBox="0 0 75 79" fill="none" xmlns="http://www.w3.org/2000/svg">
<path d="M12.2637 77.3213H62.909C65.5272 77.3213 67.958 76.5304 69.7683 75.1821C71.5779 73.8344 72.8455 71.8549 72.8446 69.5387C72.8446 69.5385 72.8446 69.5382 72.8446 69.538V9.28253C72.8446 6.96642 71.5766 4.98691 69.767 3.63917C67.9568 2.29098 65.5265 1.5 62.909 1.5H12.2637C9.64619 1.5 7.21587 2.29098 5.40566 3.63917C3.59604 4.98691 2.32812 6.96642 2.32812 9.28253V69.5387C2.32812 71.8549 3.59604 73.8344 5.40566 75.1821C7.21587 76.5303 9.64619 77.3213 12.2637 77.3213ZM9.576 9.28253C9.576 9.00615 9.72386 8.63538 10.1996 8.28103C10.675 7.92703 11.4004 7.66368 12.2637 7.66368H62.909C63.7712 7.66368 64.4968 7.92693 64.9725 8.28115C65.4489 8.63581 65.5967 9.00665 65.5967 9.28253V69.5387C65.5967 69.8151 65.4488 70.1859 64.973 70.5403C64.4977 70.8943 63.7723 71.1576 62.909 71.1576H12.2637C11.4015 71.1576 10.6759 70.8944 10.2001 70.5401C9.72381 70.1855 9.576 69.8146 9.576 69.5387V9.28253Z" fill="#4C4C4C" stroke="white" stroke-width="3"/>
<path d="M62.909 75.8213H12.2637C7.61228 75.8213 3.82812 73.003 3.82812 69.5387V9.28253C3.82812 5.81831 7.61228 3 12.2637 3H62.909C67.5604 3 71.3446 5.81831 71.3446 9.28253V69.5387C71.3463 73.003 67.5622 75.8213 62.909 75.8213Z" fill="white"/>
<path d="M68.4481 62.3184H6.71875V72.9281H68.4481V62.3184Z" fill="#B69538"/>
<path d="M62.909 75.8213H12.2637C7.61228 75.8213 3.82812 73.003 3.82812 69.5387V9.28253C3.82812 5.81831 7.61228 3 12.2637 3H62.909C67.5604 3 71.3446 5.81831 71.3446 9.28253V69.5387C71.3463 73.003 67.5622 75.8213 62.909 75.8213ZM12.2637 6.16368C9.95392 6.16368 8.076 7.56228 8.076 9.28253V69.5387C8.076 71.259 9.95569 72.6576 12.2637 72.6576H62.909C65.2188 72.6576 67.0967 71.259 67.0967 69.5387V9.28253C67.0967 7.56228 65.217 6.16368 62.909 6.16368H12.2637Z" fill="#4C4C4C"/>
<path d="M69.4201 60.8711H5.76172V63.7647H69.4201V60.8711Z" fill="#4C4C4C"/>
<path d="M43.8513 66.6582H31.3125V70.034H43.8513V66.6582Z" fill="#4C4C4C"/>
<path d="M38.6429 48.7413L52.9112 27.5999V27.225H39.1134V16H38.6429L23 37.1414V37.5163H38.2018V48.7413H38.6429Z" fill="#4C4C4C"/>
</svg>

<svg width="75" height="79" fill="none" xmlns="http://www.w3.org/2000/svg"><path d="M12.264 77.321h50.645c2.618 0 5.049-.79 6.86-2.139 1.809-1.348 3.076-3.327 3.076-5.643V9.283c0-2.317-1.268-4.296-3.078-5.644-1.81-1.348-4.24-2.139-6.858-2.139H12.264c-2.618 0-5.048.791-6.858 2.14-1.81 1.347-3.078 3.326-3.078 5.643v60.256c0 2.316 1.268 4.295 3.078 5.643 1.81 1.348 4.24 2.14 6.858 2.14zM9.576 9.283c0-.277.148-.648.624-1.002.475-.354 1.2-.617 2.064-.617h50.645c.862 0 1.588.263 2.063.617.477.355.625.726.625 1.002v60.256c0 .276-.148.647-.624 1.001-.475.354-1.2.618-2.064.618H12.264c-.862 0-1.588-.264-2.064-.618-.476-.355-.624-.725-.624-1.001V9.283z" fill="#4C4C4C" stroke="#fff" stroke-width="3"/><path d="M62.909 75.821H12.264c-4.652 0-8.436-2.818-8.436-6.282V9.283C3.828 5.818 7.612 3 12.264 3h50.645c4.651 0 8.436 2.818 8.436 6.283v60.256c.001 3.464-3.783 6.282-8.436 6.282z" fill="#fff"/><path d="M68.448 62.318H6.718v10.61h61.73v-10.61z" fill="#B69538"/><path d="M62.909 75.821H12.264c-4.652 0-8.436-2.818-8.436-6.282V9.283C3.828 5.818 7.612 3 12.264 3h50.645c4.651 0 8.436 2.818 8.436 6.283v60.256c.001 3.464-3.783 6.282-8.436 6.282zM12.264 6.164c-2.31 0-4.188 1.398-4.188 3.119v60.256c0 1.72 1.88 3.119 4.188 3.119h50.645c2.31 0 4.188-1.399 4.188-3.12V9.284c0-1.72-1.88-3.12-4.188-3.12H12.264z" fill="#4C4C4C"/><path d="M69.42 60.871H5.762v2.894H69.42V60.87zm-25.569 5.787H31.313v3.376H43.85v-3.376zm-5.208-17.917L52.91 27.6v-.375H39.113V16h-.47L23 37.141v.375h15.202v11.225h.44z" fill="#4C4C4C"/></svg>
